iconos/textnormal.svg

<?xml version="1.0" encoding="UTF-8" standalone="no"?>
<svg
   version="1.1"
   width="28"
   height="28"
   color-interpolation="linearRGB"
   id="svg147"
   sodipodi:docname="textnormal.svg"
   inkscape:version="1.2.2 (b0a8486541, 2022-12-01)"
   xmlns:inkscape="http://www.inkscape.org/namespaces/inkscape"
   xmlns:sodipodi="http://sodipodi.sourceforge.net/DTD/sodipodi-0.dtd"
   xmlns="http://www.w3.org/2000/svg"
   xmlns:svg="http://www.w3.org/2000/svg">
  <defs
     id="defs151" />
  <sodipodi:namedview
     id="namedview149"
     pagecolor="#ffffff"
     bordercolor="#000000"
     borderopacity="0.25"
     inkscape:showpageshadow="2"
     inkscape:pageopacity="0.0"
     inkscape:pagecheckerboard="0"
     inkscape:deskcolor="#d1d1d1"
     showgrid="false"
     inkscape:zoom="12.9375"
     inkscape:cx="21.024155"
     inkscape:cy="25.816425"
     inkscape:window-width="1920"
     inkscape:window-height="1052"
     inkscape:window-x="0"
     inkscape:window-y="0"
     inkscape:window-maximized="1"
     inkscape:current-layer="svg147" />
  <g
     id="g145"
     transform="matrix(0.42486644,0,0,0.42486644,0.50301197,0.10247069)">
    <path
       style="fill:#010101;fill-opacity:0.5725"
       d="m 27,62 2,2 3.13,-3.17 L 37,64 45.39,52.54 64,43 59,40 61,42 36,54 Z m 31,-23 4,-3 -4,-2 -3,3 z"
       id="path2" />
    <path
       style="fill:none;stroke:#010101;stroke-width:4"
       d="m 6.25,35 c 0,0 5.62,6 10.62,12.5 5,6.5 9.38,13.25 9.38,13.25 L 59.12,41.87 32,20 Z"
       id="path4" />
    <radialGradient
       id="gradient0"
       gradientUnits="userSpaceOnUse"
       cx="0"
       cy="0"
       r="64"
       gradientTransform="matrix(0.5714,0,0,0.3333,26,40)">
      <stop
         offset="1"
         stop-color="#fffcc0"
         id="stop6" />
      <stop
         offset="0.4886"
         stop-color="#f1b706"
         id="stop8" />
    </radialGradient>
    <path
       style="fill:url(#gradient0)"
       d="m 6.25,35 c 0,0 5.62,6 10.62,12.5 5,6.5 9.38,13.25 9.38,13.25 L 50.04,47.08 46,47 49,43 57.05,43.06 59.12,41.87 32,20 Z"
       id="path11" />
    <path
       style="fill:#e2c254"
       d="M 50.04,47.08 46,47 l 3,-4 8.05,0.06 z"
       id="path13" />
    <path
       style="fill:none;stroke:#010101;stroke-width:4"
       d="m 2.62,35.87 c 0,0 8.33,5.39 16.38,11 8.44,5.88 16.75,10.88 16.75,10.88 L 58.12,31.37 c 0,0 -12.68,-5.67 -22.75,-11 -5.19,-2.75 -9.37,-6 -9.37,-6 z"
       id="path15" />
    <linearGradient
       id="gradient1"
       gradientUnits="userSpaceOnUse"
       x1="107.04"
       y1="-12.09"
       x2="118.33"
       y2="32.990002">
      <stop
         offset="0"
         stop-color="#ffefa5"
         id="stop17" />
      <stop
         offset="0.7424"
         stop-color="#fffcc0"
         id="stop19" />
      <stop
         offset="1"
         stop-color="#fff890"
         id="stop21" />
    </linearGradient>
    <path
       style="fill:url(#gradient1)"
       d="m 2.62,35.87 c 0,0 8.33,5.39 16.38,11 8.44,5.88 16.75,10.88 16.75,10.88 L 44.86,47 33,45.25 23,43 l 2,-1 12,-1.25 12.74,0.5 8.38,-9.88 c 0,0 -12.68,-5.67 -22.75,-11 -5.19,-2.75 -9.37,-6 -9.37,-6 z"
       id="path24" />
    <linearGradient
       id="gradient2"
       gradientUnits="userSpaceOnUse"
       x1="-47.139999"
       y1="-15.78"
       x2="-28.459999"
       y2="-37.849998">
      <stop
         offset="0"
         stop-color="#010101"
         id="stop26" />
      <stop
         offset="1"
         stop-color="#9e9e9e"
         id="stop28" />
    </linearGradient>
    <path
       style="fill:none;stroke:url(#gradient2);stroke-width:1"
       d="M 20,41 34.87,25.87 M 16,35 24,27"
       id="path31" />
    <linearGradient
       id="gradient3"
       gradientUnits="userSpaceOnUse"
       x1="-47.139999"
       y1="-15.78"
       x2="-28.459999"
       y2="-37.849998">
      <stop
         offset="0"
         stop-color="#010101"
         id="stop33" />
      <stop
         offset="1"
         stop-color="#9e9e9e"
         id="stop35" />
    </linearGradient>
    <path
       style="fill:none;stroke:url(#gradient3);stroke-width:1"
       d="m 20,36 8.12,-8.38"
       id="path38" />
    <linearGradient
       id="gradient4"
       gradientUnits="userSpaceOnUse"
       x1="17.77"
       y1="-64"
       x2="46.220001"
       y2="-64">
      <stop
         offset="0"
         stop-color="#c5b03a"
         id="stop40" />
      <stop
         offset="1"
         stop-color="#e9da71"
         id="stop42" />
    </linearGradient>
    <path
       style="fill:url(#gradient4)"
       d="M 44.86,47 33,45.25 23,43 l 2,-1 12,-1.25 12.74,0.5 z"
       id="path45" />
    <path
       style="fill:none;stroke:#010101;stroke-width:4"
       d="m 17,4 h 34 c 0,0 3,1 3,5 0,4 -3,5 -3,5 H 17 L 6,9 Z M 17.96,4.58 16,7 v 4 l 1.96,2.41 m 27,-8.83 C 44.1,5.25 43,6.57 43,9 c 0,2.42 1.1,3.74 1.96,4.41"
       transform="matrix(0.7071,-0.7071,0.7071,0.7071,15.8224,37.5335)"
       id="path47" />
    <linearGradient
       id="gradient5"
       gradientUnits="userSpaceOnUse"
       x1="43.049999"
       y1="9.8199997"
       x2="40.389999"
       y2="21.77">
      <stop
         offset="0"
         stop-color="#ffeed5"
         id="stop49" />
      <stop
         offset="0.553"
         stop-color="#dbab5f"
         id="stop51" />
      <stop
         offset="0.8143"
         stop-color="#ffeed5"
         id="stop53" />
    </linearGradient>
    <path
       style="fill:url(#gradient5)"
       d="m 17,4 -2.63,2.76 v 4.47 L 17,14 8.69,9.84 8.74,8.12 Z"
       transform="matrix(0.7071,-0.7071,0.7071,0.7071,15.8224,37.5335)"
       id="path56" />
    <linearGradient
       id="gradient6"
       gradientUnits="userSpaceOnUse"
       x1="10.58"
       y1="-64"
       x2="63.41"
       y2="-64">
      <stop
         offset="0"
         stop-color="#ffeaba"
         id="stop58" />
      <stop
         offset="1"
         stop-color="#fff6e3"
         id="stop60" />
    </linearGradient>
    <path
       style="fill:url(#gradient6)"
       d="M 19,4 16.09,6.84 42,7 45,4 Z"
       transform="matrix(0.7071,-0.7071,0.7071,0.7071,15.8224,37.5335)"
       id="path63" />
    <linearGradient
       id="gradient7"
       gradientUnits="userSpaceOnUse"
       x1="19.74"
       y1="-64"
       x2="52.25"
       y2="-64">
      <stop
         offset="1"
         stop-color="#fbb50d"
         id="stop65" />
      <stop
         offset="0"
         stop-color="#f0ab06"
         id="stop67" />
    </linearGradient>
    <path
       style="fill:url(#gradient7)"
       d="m 16.09,6.84 v 4.31 L 42,11 V 7 Z"
       transform="matrix(0.7071,-0.7071,0.7071,0.7071,15.8224,37.5335)"
       id="path70" />
    <linearGradient
       id="gradient8"
       gradientUnits="userSpaceOnUse"
       x1="129.35001"
       y1="27.639999"
       x2="124.48"
       y2="47.369999">
      <stop
         offset="0"
         stop-color="#a52a04"
         id="stop72" />
      <stop
         offset="1"
         stop-color="#fdb44b"
         id="stop74" />
    </linearGradient>
    <path
       style="fill:url(#gradient8)"
       d="M 16.09,11.15 19,14 h 26 l -3,-3 z"
       transform="matrix(0.7071,-0.7071,0.7071,0.7071,15.8224,37.5335)"
       id="path77" />
    <linearGradient
       id="gradient9"
       gradientUnits="userSpaceOnUse"
       x1="69.230003"
       y1="1.9"
       x2="69.230003"
       y2="14.09">
      <stop
         offset="0"
         stop-color="#ffeaee"
         id="stop79" />
      <stop
         offset="0.7765"
         stop-color="#d17c8a"
         id="stop81" />
      <stop
         offset="1"
         stop-color="#da9faa"
         id="stop83" />
    </linearGradient>
    <path
       style="fill:url(#gradient9)"
       d="m 51,4 c 0,0 -3,1 -3,5 0,4 3,5 3,5 h -4 c 0,0 -3,-1 -3,-5 0,-4 3,-5 3,-5 z"
       transform="matrix(0.7071,-0.7071,0.7071,0.7071,15.8224,37.5335)"
       id="path86" />
    <linearGradient
       id="gradient10"
       gradientUnits="userSpaceOnUse"
       x1="114.68"
       y1="3.1800001"
       x2="114.6"
       y2="19.440001">
      <stop
         offset="0"
         stop-color="#ffe3e8"
         id="stop88" />
      <stop
         offset="1"
         stop-color="#f8a1b1"
         id="stop90" />
    </linearGradient>
    <path
       style="fill:url(#gradient10)"
       d="m 51,4 c 0,0 3,1 3,5 0,4 -3,5 -3,5 0,0 -3,-1 -3,-5 0,-4 3,-5 3,-5 z"
       transform="matrix(0.7071,-0.7071,0.7071,0.7071,15.8224,37.5335)"
       id="path93" />
    <linearGradient
       id="gradient11"
       gradientUnits="userSpaceOnUse"
       x1="-47.139999"
       y1="-15.78"
       x2="-28.459999"
       y2="-37.849998">
      <stop
         offset="0"
         stop-color="#010101"
         id="stop95" />
      <stop
         offset="1"
         stop-color="#9e9e9e"
         id="stop97" />
    </linearGradient>
    <path
       style="fill:none;stroke:url(#gradient11);stroke-width:1"
       d="m 13,34 1,2 2,1"
       transform="translate(-2,2)"
       id="path100" />
    <linearGradient
       id="gradient12"
       gradientUnits="userSpaceOnUse"
       x1="-47.139999"
       y1="-15.78"
       x2="-28.459999"
       y2="-37.849998">
      <stop
         offset="0"
         stop-color="#010101"
         id="stop102" />
      <stop
         offset="1"
         stop-color="#9e9e9e"
         id="stop104" />
    </linearGradient>
    <path
       style="fill:none;stroke:url(#gradient12);stroke-width:1"
       d="m 13,34 1,2 2,1"
       id="path107" />
    <linearGradient
       id="gradient13"
       gradientUnits="userSpaceOnUse"
       x1="-47.139999"
       y1="-15.78"
       x2="-28.459999"
       y2="-37.849998">
      <stop
         offset="0"
         stop-color="#010101"
         id="stop109" />
      <stop
         offset="1"
         stop-color="#9e9e9e"
         id="stop111" />
    </linearGradient>
    <path
       style="fill:none;stroke:url(#gradient13);stroke-width:1"
       d="m 13,34 1,2 2,1"
       transform="translate(11,-10)"
       id="path114" />
    <linearGradient
       id="gradient14"
       gradientUnits="userSpaceOnUse"
       x1="-47.139999"
       y1="-15.78"
       x2="-28.459999"
       y2="-37.849998">
      <stop
         offset="0"
         stop-color="#010101"
         id="stop116" />
      <stop
         offset="1"
         stop-color="#9e9e9e"
         id="stop118" />
    </linearGradient>
    <path
       style="fill:none;stroke:url(#gradient14);stroke-width:1"
       d="m 23,24 2,1 1,2"
       transform="translate(2,-1)"
       id="path121" />
    <linearGradient
       id="gradient15"
       gradientUnits="userSpaceOnUse"
       x1="-47.139999"
       y1="-15.78"
       x2="-28.459999"
       y2="-37.849998">
      <stop
         offset="0"
         stop-color="#010101"
         id="stop123" />
      <stop
         offset="1"
         stop-color="#9e9e9e"
         id="stop125" />
    </linearGradient>
    <path
       style="fill:none;stroke:url(#gradient15);stroke-width:1"
       d="m 13,34 1,2 2,1"
       transform="translate(4,2)"
       id="path128" />
    <linearGradient
       id="gradient16"
       gradientUnits="userSpaceOnUse"
       x1="-47.139999"
       y1="-15.78"
       x2="-28.459999"
       y2="-37.849998">
      <stop
         offset="0"
         stop-color="#010101"
         id="stop130" />
      <stop
         offset="1"
         stop-color="#9e9e9e"
         id="stop132" />
    </linearGradient>
    <path
       style="fill:none;stroke:url(#gradient16);stroke-width:1"
       d="m 23,24 2,1 1,2"
       transform="translate(4,23)"
       id="path135" />
  </g>
</svg>

<?xml version="1.0" encoding="UTF-8" standalone="no"?>
<svg
   version="1.1"
   width="64"
   height="64"
   color-interpolation="linearRGB"
   id="svg147"
   sodipodi:docname="textnormal.svg"
   inkscape:version="1.2.2 (b0a8486541, 2022-12-01)"
   xmlns:inkscape="http://www.inkscape.org/namespaces/inkscape"
   xmlns:sodipodi="http://sodipodi.sourceforge.net/DTD/sodipodi-0.dtd"
   xmlns="http://www.w3.org/2000/svg"
   xmlns:svg="http://www.w3.org/2000/svg">
  <defs
     id="defs151" />
  <sodipodi:namedview
     id="namedview149"
     pagecolor="#ffffff"
     bordercolor="#000000"
     borderopacity="0.25"
     inkscape:showpageshadow="2"
     inkscape:pageopacity="0.0"
     inkscape:pagecheckerboard="0"
     inkscape:deskcolor="#d1d1d1"
     showgrid="false"
     inkscape:zoom="12.9375"
     inkscape:cx="26.512077"
     inkscape:cy="25.816425"
     inkscape:window-width="1920"
     inkscape:window-height="1008"
     inkscape:window-x="0"
     inkscape:window-y="0"
     inkscape:window-maximized="1"
     inkscape:current-layer="svg147" />
  <g
     id="g145">
    <path
       style="fill:#010101; fill-opacity:0.5725"
       d="M27 62L29 64L32.13 60.83L37 64L45.39 52.54L64 43L59 40L61 42L36 54L27 62z            M58 39L62 36L58 34L55 37L58 39z"
       id="path2" />
    <path
       style="fill:none; stroke:#010101; stroke-width:4"
       d="M6.25 35C6.25 35 11.87 41 16.87 47.5C21.87 54 26.25 60.75 26.25 60.75L59.12 41.87L32 20L6.25 35z"
       id="path4" />
    <radialGradient
       id="gradient0"
       gradientUnits="userSpaceOnUse"
       cx="0"
       cy="0"
       r="64"
       gradientTransform="matrix(0.5714,0,0,0.3333,26,40)">
      <stop
         offset="1"
         stop-color="#fffcc0"
         id="stop6" />
      <stop
         offset="0.4886"
         stop-color="#f1b706"
         id="stop8" />
    </radialGradient>
    <path
       style="fill:url(#gradient0)"
       d="M6.25 35C6.25 35 11.87 41 16.87 47.5C21.87 54 26.25 60.75 26.25 60.75L50.04 47.08L46 47L49 43L57.05 43.06L59.12 41.87L32 20L6.25 35z"
       id="path11" />
    <path
       style="fill:#e2c254"
       d="M50.04 47.08L46 47L49 43L57.05 43.06L50.04 47.08z"
       id="path13" />
    <path
       style="fill:none; stroke:#010101; stroke-width:4"
       d="M2.62 35.87C2.62 35.87 10.95 41.26 19 46.87C27.44 52.75 35.75 57.75 35.75 57.75L58.12 31.37C58.12 31.37 45.44 25.7 35.37 20.37C30.18 17.62 26 14.37 26 14.37L2.62 35.87z"
       id="path15" />
    <linearGradient
       id="gradient1"
       gradientUnits="userSpaceOnUse"
       x1="107.04"
       y1="-12.09"
       x2="118.33"
       y2="32.99">
      <stop
         offset="0"
         stop-color="#ffefa5"
         id="stop17" />
      <stop
         offset="0.7424"
         stop-color="#fffcc0"
         id="stop19" />
      <stop
         offset="1"
         stop-color="#fff890"
         id="stop21" />
    </linearGradient>
    <path
       style="fill:url(#gradient1)"
       d="M2.62 35.87C2.62 35.87 10.95 41.26 19 46.87C27.44 52.75 35.75 57.75 35.75 57.75L44.86 47L33 45.25L23 43L25 42L37 40.75L49.74 41.25L58.12 31.37C58.12 31.37 45.44 25.7 35.37 20.37C30.18 17.62 26 14.37 26 14.37L2.62 35.87z"
       id="path24" />
    <linearGradient
       id="gradient2"
       gradientUnits="userSpaceOnUse"
       x1="-47.14"
       y1="-15.78"
       x2="-28.46"
       y2="-37.85">
      <stop
         offset="0"
         stop-color="#010101"
         id="stop26" />
      <stop
         offset="1"
         stop-color="#9e9e9e"
         id="stop28" />
    </linearGradient>
    <path
       style="fill:none; stroke:url(#gradient2); stroke-width:1"
       d="M20 41L34.87 25.87            M16 35L24 27"
       id="path31" />
    <linearGradient
       id="gradient3"
       gradientUnits="userSpaceOnUse"
       x1="-47.14"
       y1="-15.78"
       x2="-28.46"
       y2="-37.85">
      <stop
         offset="0"
         stop-color="#010101"
         id="stop33" />
      <stop
         offset="1"
         stop-color="#9e9e9e"
         id="stop35" />
    </linearGradient>
    <path
       style="fill:none; stroke:url(#gradient3); stroke-width:1"
       d="M20 36L28.12 27.62"
       id="path38" />
    <linearGradient
       id="gradient4"
       gradientUnits="userSpaceOnUse"
       x1="17.77"
       y1="-64"
       x2="46.22"
       y2="-64">
      <stop
         offset="0"
         stop-color="#c5b03a"
         id="stop40" />
      <stop
         offset="1"
         stop-color="#e9da71"
         id="stop42" />
    </linearGradient>
    <path
       style="fill:url(#gradient4)"
       d="M44.86 47L33 45.25L23 43L25 42L37 40.75L49.74 41.25L44.86 47z"
       id="path45" />
    <path
       style="fill:none; stroke:#010101; stroke-width:4"
       d="M17 4H51C51 4 54 5 54 9C54 13 51 14 51 14H17L6 9L17 4z            M17.96 4.58L16 7V11L17.96 13.41            M44.96 4.58C44.1 5.25 43 6.57 43 9C43 11.42 44.1 12.74 44.96 13.41"
       transform="matrix(0.7071,-0.7071,0.7071,0.7071,15.8224,37.5335)"
       id="path47" />
    <linearGradient
       id="gradient5"
       gradientUnits="userSpaceOnUse"
       x1="43.05"
       y1="9.82"
       x2="40.39"
       y2="21.77">
      <stop
         offset="0"
         stop-color="#ffeed5"
         id="stop49" />
      <stop
         offset="0.553"
         stop-color="#dbab5f"
         id="stop51" />
      <stop
         offset="0.8143"
         stop-color="#ffeed5"
         id="stop53" />
    </linearGradient>
    <path
       style="fill:url(#gradient5)"
       d="M17 4L14.37 6.76V11.23L17 14L8.69 9.84L8.74 8.12L17 4z"
       transform="matrix(0.7071,-0.7071,0.7071,0.7071,15.8224,37.5335)"
       id="path56" />
    <linearGradient
       id="gradient6"
       gradientUnits="userSpaceOnUse"
       x1="10.58"
       y1="-64"
       x2="63.41"
       y2="-64">
      <stop
         offset="0"
         stop-color="#ffeaba"
         id="stop58" />
      <stop
         offset="1"
         stop-color="#fff6e3"
         id="stop60" />
    </linearGradient>
    <path
       style="fill:url(#gradient6)"
       d="M19 4L16.09 6.84L42 7L45 4H19z"
       transform="matrix(0.7071,-0.7071,0.7071,0.7071,15.8224,37.5335)"
       id="path63" />
    <linearGradient
       id="gradient7"
       gradientUnits="userSpaceOnUse"
       x1="19.74"
       y1="-64"
       x2="52.25"
       y2="-64">
      <stop
         offset="1"
         stop-color="#fbb50d"
         id="stop65" />
      <stop
         offset="0"
         stop-color="#f0ab06"
         id="stop67" />
    </linearGradient>
    <path
       style="fill:url(#gradient7)"
       d="M16.09 6.84V11.15L42 11V7L16.09 6.84z"
       transform="matrix(0.7071,-0.7071,0.7071,0.7071,15.8224,37.5335)"
       id="path70" />
    <linearGradient
       id="gradient8"
       gradientUnits="userSpaceOnUse"
       x1="129.35"
       y1="27.64"
       x2="124.48"
       y2="47.37">
      <stop
         offset="0"
         stop-color="#a52a04"
         id="stop72" />
      <stop
         offset="1"
         stop-color="#fdb44b"
         id="stop74" />
    </linearGradient>
    <path
       style="fill:url(#gradient8)"
       d="M16.09 11.15L19 14H45L42 11L16.09 11.15z"
       transform="matrix(0.7071,-0.7071,0.7071,0.7071,15.8224,37.5335)"
       id="path77" />
    <linearGradient
       id="gradient9"
       gradientUnits="userSpaceOnUse"
       x1="69.23"
       y1="1.9"
       x2="69.23"
       y2="14.09">
      <stop
         offset="0"
         stop-color="#ffeaee"
         id="stop79" />
      <stop
         offset="0.7765"
         stop-color="#d17c8a"
         id="stop81" />
      <stop
         offset="1"
         stop-color="#da9faa"
         id="stop83" />
    </linearGradient>
    <path
       style="fill:url(#gradient9)"
       d="M51 4C51 4 48 5 48 9C48 13 51 14 51 14H47C47 14 44 13 44 9C44 5 47 4 47 4H51z"
       transform="matrix(0.7071,-0.7071,0.7071,0.7071,15.8224,37.5335)"
       id="path86" />
    <linearGradient
       id="gradient10"
       gradientUnits="userSpaceOnUse"
       x1="114.68"
       y1="3.18"
       x2="114.6"
       y2="19.44">
      <stop
         offset="0"
         stop-color="#ffe3e8"
         id="stop88" />
      <stop
         offset="1"
         stop-color="#f8a1b1"
         id="stop90" />
    </linearGradient>
    <path
       style="fill:url(#gradient10)"
       d="M51 4C51 4 54 5 54 9C54 13 51 14 51 14C51 14 48 13 48 9C48 5 51 4 51 4z"
       transform="matrix(0.7071,-0.7071,0.7071,0.7071,15.8224,37.5335)"
       id="path93" />
    <linearGradient
       id="gradient11"
       gradientUnits="userSpaceOnUse"
       x1="-47.14"
       y1="-15.78"
       x2="-28.46"
       y2="-37.85">
      <stop
         offset="0"
         stop-color="#010101"
         id="stop95" />
      <stop
         offset="1"
         stop-color="#9e9e9e"
         id="stop97" />
    </linearGradient>
    <path
       style="fill:none; stroke:url(#gradient11); stroke-width:1"
       d="M13 34L14 36L16 37"
       transform="matrix(1,0,0,1,-2,2)"
       id="path100" />
    <linearGradient
       id="gradient12"
       gradientUnits="userSpaceOnUse"
       x1="-47.14"
       y1="-15.78"
       x2="-28.46"
       y2="-37.85">
      <stop
         offset="0"
         stop-color="#010101"
         id="stop102" />
      <stop
         offset="1"
         stop-color="#9e9e9e"
         id="stop104" />
    </linearGradient>
    <path
       style="fill:none; stroke:url(#gradient12); stroke-width:1"
       d="M13 34L14 36L16 37"
       id="path107" />
    <linearGradient
       id="gradient13"
       gradientUnits="userSpaceOnUse"
       x1="-47.14"
       y1="-15.78"
       x2="-28.46"
       y2="-37.85">
      <stop
         offset="0"
         stop-color="#010101"
         id="stop109" />
      <stop
         offset="1"
         stop-color="#9e9e9e"
         id="stop111" />
    </linearGradient>
    <path
       style="fill:none; stroke:url(#gradient13); stroke-width:1"
       d="M13 34L14 36L16 37"
       transform="matrix(1,0,0,1,11,-10)"
       id="path114" />
    <linearGradient
       id="gradient14"
       gradientUnits="userSpaceOnUse"
       x1="-47.14"
       y1="-15.78"
       x2="-28.46"
       y2="-37.85">
      <stop
         offset="0"
         stop-color="#010101"
         id="stop116" />
      <stop
         offset="1"
         stop-color="#9e9e9e"
         id="stop118" />
    </linearGradient>
    <path
       style="fill:none; stroke:url(#gradient14); stroke-width:1"
       d="M23 24L25 25L26 27"
       transform="matrix(1,0,0,1,2,-1)"
       id="path121" />
    <linearGradient
       id="gradient15"
       gradientUnits="userSpaceOnUse"
       x1="-47.14"
       y1="-15.78"
       x2="-28.46"
       y2="-37.85">
      <stop
         offset="0"
         stop-color="#010101"
         id="stop123" />
      <stop
         offset="1"
         stop-color="#9e9e9e"
         id="stop125" />
    </linearGradient>
    <path
       style="fill:none; stroke:url(#gradient15); stroke-width:1"
       d="M13 34L14 36L16 37"
       transform="matrix(1,0,0,1,4,2)"
       id="path128" />
    <linearGradient
       id="gradient16"
       gradientUnits="userSpaceOnUse"
       x1="-47.14"
       y1="-15.78"
       x2="-28.46"
       y2="-37.85">
      <stop
         offset="0"
         stop-color="#010101"
         id="stop130" />
      <stop
         offset="1"
         stop-color="#9e9e9e"
         id="stop132" />
    </linearGradient>
    <path
       style="fill:none; stroke:url(#gradient16); stroke-width:1"
       d="M23 24L25 25L26 27"
       transform="matrix(1,0,0,1,4,23)"
       id="path135" />
  </g>
</svg>
